src/components/Icon/svg-icon/main/pin.svg

<svg xmlns="http://www.w3.org/2000/svg" xmlns:xlink="http://www.w3.org/1999/xlink" width="24" height="24" viewBox="0 0 24 24">
  <defs>
    <path id="pin-a" d="M13.2857143,3 L12,4.28571429 L13.2857143,5.57142857 L8.14285714,10.7142857 L4.28571429,10.7142857 L8.14285714,14.5714286 L3,19.7142857 L3,21 L4.28571429,21 L9.42857143,15.8571429 L13.2857143,19.7142857 L13.125,15.8571429 L18.4285714,10.7142857 L19.7142857,12 L21,10.7142857 L13.2857143,3 Z M10.7142857,13.2857143 L9.42857143,12 L14.5714286,6.85714286 L15.8571429,8.14285714 L10.7142857,13.2857143 Z"/>
  </defs>
  <use fill="#677078" xlink:href="#pin-a"/>
</svg>

<svg xmlns="http://www.w3.org/2000/svg" xmlns:xlink="http://www.w3.org/1999/xlink" width="24" height="24"><defs><path id="a" d="M13.286 3L12 4.286l1.286 1.285-5.143 5.143H4.286l3.857 3.857L3 19.714V21h1.286l5.143-5.143 3.857 3.857-.161-3.857 5.304-5.143L19.714 12 21 10.714 13.286 3zm-2.572 10.286L9.43 12l5.142-5.143 1.286 1.286-5.143 5.143z"/></defs><use fill="#677078" xlink:href="#a"/></svg>
